X:298
T: Niujiexin
N: C1795
O: China, Jiangxi Gaoan
S: IV, 212]
R: Xiaodiao]
M: 2/4
L: 1/16
K: C
d2e2G4 | A4A2c2 | d2e2G4 | A8
d4d2e2 | d2e2G2A2 | c4c2A2 | G8
c2c4c2 | A2c2A2G2 | E2G2A2c2 | G2G6
d2d4e2 | d2e2G2A2 | c4d2A2 | G8
E6G2 | c2z2c2z2 | E3GA2E2 | G8
d2d4e2 | d2e2G2A2 | c4d2A2 | G2A2G4- | G8

